X:1
T:Wagner Doch unsre Liebe
T:Wagner Doch unsre Liebe
L:1/8
Q:1/4=70
M:3/4
K:Eb
V:1 treble nm="Piano" snm="Pno."
V:1
 G3 D =A,2- | A,B, =B,C ^CD- | DE GF AG | B=A cB _AG- | G=E G F2 _E- | E^C E D2 _D- | D=B, C=E GB | %7
 _d4 c z | A3 F =B,2- | B,C _D=D =EF | GF AG BA- | A=E F^F GA- | AB cB _dc | e_d _fe =fe | %14
 c3 A D2 | c3 A D2- | DE _d3 c- | c=A c B2 _A- | A^F A G2 =F | F^C =E D2 C | C^A, C =B,2 z |] %21

